X: 37788
T: Song Of The Riddles, The
R: jig
M: 6/8
K: Dmixolydian
D2|D2 D2 D2 D2|E2G4A2|G4E4|D6 G2|
A2 A2 A2 A2|B2 d4 e2|d4 B4|A6 G2|
A2 A2 A2 A2|B2 d4 e2|d4 B4|A6 B2|
A2 G2 E2 D2|E2 G4 A2|G4 E4|D8|D8||

